X: 08221
M: 6/8
L: 1/8
K: G
V: 1 clef=treble middle=B
|: B/c/ |\
d2d {e}dcd | e2d {d}cBc | A2A Adc | B3 {d}cBA |\
V: 2 clef=bass middle=d
z |\
gbd' gbd' | fad' fad' | dfd' dfd' | gbd' gbd' |\
egb egb | cea ^cea | dac' dac' | gbd' g2 :|
|: z |\
gbd' gbd' | ^gbe' ac'e' | fad' fad' | gbd' gbd' |\
egb egb | cea ^cea | dac' dac' | gbd' g2 :|

